X:1
T:Wait on the Lord
T:Wait on the Lord
T:John Robson Sweney
T:Frances Jane (Fanny) Crosby, 1898
T:Public Domain Courtesy of the Cyber Hymnal™
C:John Robson Sweney
Z:Public Domain
Z:Courtesy of the Cyber Hymnal™
%%score ( 1 2 ) ( 3 4 )
L:1/8
Q:1/4=125
M:3/4
K:Eb
V:1 treble 
V:2 treble 
V:3 bass 
V:4 bass 
V:1
 [EG]2 [EG]2 [EG]2 | [DA]4 [B,D]2 | [B,E]4 [EG]2 | [GB]4 [Ge]2 | [Fd]2 [DF]2 [EG]2 | %5
w: 1.~Wait on the|Lord, wait|pa- tient-|ly, And|thou shalt in|
w: 2.~Wait on the|Lord, wait|cheer- ful-|ly, And|He will thy|
w: 3.~Wait on the|Lord, wait|lov- ing-|ly, Con-|fide in His|
w: 4.~Wait on the|Lord, wait|joy- ful-|ly, For|then shall thy|
 (A2 B2) [DA]2 | [EG]6- | [EG]4 | [EG]2 [EG]2 [EG]2 | [DG]4 [DF]2 | E4 [Ec]2 | [EB]4 [Ge]2 | %12
w: Him * be|blest;||Af- ter the|storm, a|ho- ly|calm, And|
w: youth * re-|new;||Wait on the|Lord o-|bed- ient-|ly, What-|
w: care * thy|all;||Those that a-|bide in|per- fect|peace No|
w: heart * be|strong;||Lo! by His|hand He|lead- eth|thee, And|
 [Fd]2 [Ac]2 [GB]2 | [FA]4 [B,D]2 | [B,E]6- | [B,E]4 ||"^Refrain" [DB]2 [DF]2 [EG]2 | [FA]4 [Ad]2 | %18
w: af- ter thy|la- bor|rest.||||
w: ev- er He|bids thee|do.||||
w: dan- ger can|e’er be-|fall.||||
w: thou shalt be|filled with|song.||||
 A4 [FA]2 | [EG]4 [GB]2 | [Ge]2 E2 F2 | _G2 F2 E2 | B6 E2 | [DB]6 | [EG]2 [EG]2 [EG]2 | %25
w: |||||||
w: |||||||
w: |||||||
w: |||||||
 [DG]4 [DF]2 | E4 [Ec]2 | [EB]4 [Ge]2 | [Fd]2 [Ac]2 [GB]2 | [FA]4 [B,D]2 | [B,E]6- | [B,E]4 |] %32
w: |||||||
w: |||||||
w: |||||||
w: |||||||
V:2
 x6 | x6 | x6 | x6 | x6 | A2 B2 x2 | x6 | x4 | x6 | x6 | E4 x2 | x6 | x6 | x6 | x6 | x4 || x6 | %17
 x6 | A4 x2 | x6 | x2 E2 F2 | _G2 F2 E2 | B6 E2 | x6 | x6 | x6 | E4 x2 | x6 | x6 | x6 | x6 | x4 |] %32
V:3
 [E,B,]2 [E,B,]2 [E,B,]2 | [B,,B,]4 [B,,A,]2 | [E,G,]4 [E,B,]2 | [E,E]4 [E,B,]2 | B,2 B,2 B,2 | %5
w: ~ ~ ~|~ ~|~ ~|~ ~|~ ~ ~|
 B,2 F,2 [B,,B,]2 | [E,B,]6- | [E,B,]4 | [E,B,]2 [E,B,]2 [E,B,]2 | [G,=B,]4 [G,B,]2 | %10
w: ~ ~ ~|~||~ ~ ~|~ ~|
 [A,C]4 [A,,A,]2 | [E,G,]4 [E,B,]2 | B,2 [B,,B,]2 [B,,B,]2 | [B,,B,]4 [B,,A,]2 | [E,G,]6- | %15
w: ~ ~|~ ~|~ ~ ~|~ ~|Wait|
 [E,G,]4 || [B,,F,]2 [B,,B,]2 [B,,B,]2 | [B,,B,]4 [B,,B,]2 | [B,,B,]4 [D,B,]2 | [E,B,]4 [E,B,]2 | %20
w: |on the Lord,|for whom|hast thou|On earth|
 [E,B,]2 E,2 F,2 | _G,2 F,2 E,2 | (B,,6- _G,2 | B,,6) | [E,B,]2 [E,B,]2 [E,B,]2 | %25
w: or in Hea-|ven but He?|O- *||ver thy soul|
 [G,=B,]4 [G,B,]2 | [A,C]4 [A,,A,]2 | [E,G,]4 [E,B,]2 | B,2 [B,,B,]2 [B,,B,]2 | [B,,B,]4 [B,,A,]2 | %30
w: a watch|He keeps,|Wher- ev-|er thy path|may be.|
 [E,G,]6- | [E,G,]4 |] %32
w: ||
V:4
 x6 | x6 | x6 | x6 | B,2 B,2 B,2 | (B,2 F,2) x2 | x6 | x4 | x6 | x6 | x6 | x6 | B,2 x4 | x6 | x6 | %15
 x4 || x6 | x6 | x6 | x6 | x6 | x6 | x8 | x6 | x6 | x6 | x6 | x6 | B,2 x4 | x6 | x6 | x4 |] %32

